X: 3
T: McGoldrick's
R: jig
M: 6/8
L: 1/8
K: Dmaj
f3 e2 g|fdA G3|FAF GBG|AdA cde|f3 e2 g|fdA G3|FAF GBG|Adc d3:|B3 BAB|fBf fec|eAe fed|cea ecA|B3 BAB|fBf fec|1 eAe fec|cBA B3:|2 eAe fAf|gAg a2 g||


Tune 628	Setting 13648

